X: 763
T: Shiquan renxen
%%abc-version 2.0
%%abcx-abcm2ps-target-version 5.9.1 (29 Sep 2008)
%%abc-creator hum2abc beta
%%abcx-conversion-date 2013/10/02 07:52:30
%%abc-edited-by Helmut Schaffrath
%%humdrum-veritas 3983258785
%%humdrum-veritas-data 78785313
%%continueall 1
%%barnumbers 0
L: 1/8
M: 4/4
K: G
A A d e/ d/ B A E G [I:setbarnb 1]| 
B A G D/ E/D4 | 
A B A A d A/ G/ E G | 
B A G D/ E/D4 | 
A GA2A d c B | 
d A/ d/ E D2<G2F/ E/ | 
A B A A d A/ G/ E G | 
B A G D/ E/D4 | 
A B A d2<G2F/ E/ | 
A B A A d A/ G/ E G | 
B A G D/ E/D4 |]  



